X: 1901
T: The Sultan's Grand March
B: australian traditional tunes wiki
M:4/4
L:1/8
R: March
Q: 1/4=100
K:C
V:1 
G2(3GAF|"C"E2G2c2B2|"F"A4-A>A A>A|"C"G3GA2G2|"G7"D4-D>G (3GAF|
"C"E2G2c2B2|"F"A4-A>A A2|"G7"G3GF2D2|"C"C6c2||
"G7"(3BBB B>d (3BBB B>A|A>G B>e "C"c3c|"G7"(3BBB B>d (3BBB B>A|A>G B>e "C"c3c|1
"G7"(3BBB B>d (3BBB B>A|A>G B>e "C"c3E|"D7"D>D D>D D>D (3DFA|"G7"G>^F G>F:|2
"G7"(3BBB B>d (3BBB B>A|A>G B>e "C"c3E|"G7"(3ddd d>d (3^ddd d>d|"C"e2"G7"d2"C"c2||
% abcbook-tune_id 6342d53ad161459227e4cea2


% abcbook-boost 0
% abcbook-tablature 
% abcbook-transpose 
% abcbook-lastupdated 1665324391655
% abcbook-soundfonts 
% abcbook-repeats 1
% NFF Book 2009

